X: 1
T: Donald, Willie And His Dog
R: slip jig
M: 9/8
L: 1/8
K: Amix
A2c Acc B2A|A2c Acc B3|A2c Acc B2A|c2A ABG A3:|
B2e edc B2A|B2e edc B3|c2e edc B2A|c2A ABG A3:|
A2c ABB c2B|A2c Acc B3|A2c ABB c2B|c2A ABG A3:|
e2c dfd e2d|e2c d2c B3|e2c dfd e2d|c2A ABG A3:|


Tune 3019	Setting 16170

